openmetadata-ui/src/main/resources/ui/src/assets/img/slackChat/icon-user.svg

<svg xmlns="http://www.w3.org/2000/svg" width="512" height="512" fill="none"><path fill="url(#a)" d="M512 256c0 141.387-114.613 256-256 256S0 397.387 0 256 114.613 0 256 0s256 114.613 256 256Z"/><path fill="#fff" d="M314.203 247.938c23.516-17.711 38.75-45.852 38.75-77.489 0-53.457-43.492-96.949-96.953-96.949-53.457 0-96.949 43.492-96.949 96.949 0 31.637 15.23 59.778 38.746 77.489C134.836 271.57 89.902 332.383 89.902 403.5h30c0-75.047 61.055-136.098 136.102-136.098 75.043 0 136.098 61.051 136.098 136.098h30c-.004-71.117-44.934-131.93-107.899-155.562Zm-125.152-77.489c0-36.918 30.031-66.949 66.949-66.949s66.949 30.031 66.949 66.949-30.031 66.953-66.949 66.953-66.949-30.035-66.949-66.953Z"/><defs><linearGradient id="a" x1="256" x2="256" y1="512" y2="0" gradientUnits="userSpaceOnUse"><stop stop-color="#35198E"/><stop offset="1" stop-color="#8D6AF1"/></linearGradient></defs></svg>

<svg width="512" height="512" viewBox="0 0 512 512" fill="none" xmlns="http://www.w3.org/2000/svg">
<path d="M512 256C512 397.387 397.387 512 256 512C114.613 512 0 397.387 0 256C0 114.613 114.613 0 256 0C397.387 0 512 114.613 512 256Z" fill="url(#paint0_linear_11219_10541)"/>
<path d="M314.203 247.938C337.719 230.227 352.953 202.086 352.953 170.449C352.953 116.992 309.461 73.5 256 73.5C202.543 73.5 159.051 116.992 159.051 170.449C159.051 202.086 174.281 230.227 197.797 247.938C134.836 271.57 89.9023 332.383 89.9023 403.5H119.902C119.902 328.453 180.957 267.402 256.004 267.402C331.047 267.402 392.102 328.453 392.102 403.5H422.102C422.098 332.383 377.168 271.57 314.203 247.938ZM189.051 170.449C189.051 133.531 219.082 103.5 256 103.5C292.918 103.5 322.949 133.531 322.949 170.449C322.949 207.367 292.918 237.402 256 237.402C219.082 237.402 189.051 207.367 189.051 170.449Z" fill="white"/>
<defs>
<linearGradient id="paint0_linear_11219_10541" x1="256" y1="512" x2="256" y2="0" gradientUnits="userSpaceOnUse">
<stop stop-color="#35198E"/>
<stop offset="1" stop-color="#8D6AF1"/>
</linearGradient>
</defs>
</svg>
